X:084 
T:Jenny And The Weasel (reel)
F:file ID: cre.5/084jenny_w
B:CRE5.156 (SinÃÂÃÂÃÂÃÂ©ad agus an EasÃÂÃÂÃÂÃÂ³g)
L:1/8
Q:180
M:C
R:reel
K:G
"D modal"
D2DF AGEF|GAcd eddd|D2DF AGEG|cAGA EDDA,|
"5"D2DF AGEF|GAcd eddd|D2DF AGEG|cAGA EDDA:|
"9"|:ed cAAB|cAdB cAAA|d2ed cAAB|cAGA EDDA|
"13"d2ed cAAB|cAdB cAGA|DEFG Addd|cAGA EDDA:|
"17"|:eaab aged|egga gecd|eaab aged|eaag eddd|
"21"eaab aged|egga gedA|DEFG Addd|cAGA EDDA:|

%%%

